!!!OTL: AUF AUF IHR BRUEDER
!!!ARE: Europa, Mitteleuropa, Deutschland, Hessen, Marburg
!!!SCT: E1329
!!!YEM: Copyright 1995, estate of Helmut Schaffrath.
**kern
*ICvox
*Ivox
*M4/4
*k[b-e-]
*B-:
{4f
=1
4b-
4b-
8b-
8b-
8cc
8cc
=2
4dd
8dd
8dd
4dd}
{8b-
8dd
=3
4ff
4ff
8gg
8ff
8ee-
8dd
=4
4ff
4cc
4r}
{8cc
8dd
=5
4ee-
4gg
4gg
8ff
8ee-
=6
4dd
4ff
4ff}
{8dd
8dd
=7
4cc
8ee-
8ee-
4gg
8ff
8ee-
=8
8dd
8dd
8cc
8cc
4b-}
{8cc
8dd
=9
4ee-
4gg
4gg
8ff
8ee-
=10
4dd
4ff
4ff}
{8dd
8dd
=11
4cc
8ee-
8ee-
4gg
8ff
8ee-
=12
8dd
8dd
8cc
8cc
4b-}
==
!!!AGN: Staende -, Soldaten -, Kriegs - Lied
!!!ONB: ESAC (Essen Associative Code) Database: ERK3
!!!AMT: simple quadruple
!!!AIN: vox
!!!EED: Helmut Schaffrath
!!!EEV: 1.0
*-
